src/assets/icons/blockchain-blockchain.svg

<svg width="16" height="16" viewBox="0 0 16 16" fill="none" xmlns="http://www.w3.org/2000/svg">
<g clip-path="url(#clip0_8874_15273)">
<path fill-rule="evenodd" clip-rule="evenodd" d="M1.69109 0.0301114C0.839684 0.162752 0.159015 0.849819 0.0298134 1.70705C-0.0103244 1.97333 -0.0103244 5.93636 0.0298134 6.20263C0.160339 7.0686 0.83483 7.74393 1.706 7.8809C1.86376 7.9057 2.16537 7.90859 4.0384 7.90325C6.43669 7.89643 6.28022 7.90469 6.6309 7.76655C7.15948 7.55832 7.55915 7.15866 7.76737 6.63008C7.88872 6.32198 7.89525 6.26682 7.90376 5.47633L7.91143 4.76385H8.37702H8.84258L8.851 5.11779C8.8583 5.42523 8.86582 5.49589 8.90813 5.65559C9.09414 6.35776 9.64241 6.90588 10.3454 7.09246C10.5048 7.13477 10.5753 7.14225 10.8828 7.14957L11.2367 7.15799V7.6249V8.09181L10.5978 8.09188C10.124 8.09194 9.91582 8.09894 9.79232 8.11896C8.91811 8.26076 8.26158 8.91729 8.11979 9.79149C8.09976 9.915 8.09276 10.1231 8.0927 10.597L8.09263 11.2359H7.55023H7.00783V11.1096C7.00783 10.8705 6.91687 10.4837 6.81058 10.2706C6.56642 9.78123 6.10965 9.39013 5.59751 9.23196C5.32368 9.14738 5.20429 9.13999 4.11195 9.14002C2.98988 9.14006 2.85428 9.14918 2.58091 9.24297C2.26203 9.35239 1.99541 9.52062 1.77291 9.75281C1.45247 10.0872 1.26759 10.4788 1.21734 10.9295C1.19142 11.162 1.19142 12.9278 1.21734 13.1603C1.32045 14.085 2.041 14.816 2.96232 14.9306C3.21625 14.9622 5.08241 14.9559 5.30251 14.9227C6.24188 14.7811 6.95011 14.0016 7.00244 13.0516L7.01334 12.8539H7.55299H8.09263L8.0927 13.4928C8.09278 14.188 8.10824 14.3568 8.19558 14.617C8.43822 15.3398 9.05193 15.8583 9.79794 15.9708C10.0642 16.0109 14.0272 16.0109 14.2935 15.9708C15.1566 15.8407 15.8415 15.1557 15.9716 14.2927C16.0117 14.0264 16.0117 10.0634 15.9716 9.79712C15.8417 8.93551 15.1711 8.26038 14.3057 8.12003C14.1744 8.09872 13.9785 8.09194 13.4937 8.09188L12.8547 8.09181V7.6249V7.15799L13.2087 7.14957C13.6306 7.13953 13.8154 7.09949 14.115 6.95317C14.6512 6.69129 15.0242 6.23764 15.1865 5.65019L15.2358 5.47173V3.95484V2.43795L15.1865 2.25949C14.9892 1.54514 14.4566 1.01118 13.7461 0.815344L13.5626 0.764781H12.0457H10.5288L10.3504 0.814076C9.76294 0.976355 9.30928 1.34942 9.04741 1.88557C8.90109 2.18514 8.86104 2.36996 8.851 2.79189L8.84258 3.14584H8.37567H7.90877L7.90869 2.5069C7.90864 2.02205 7.90185 1.82622 7.88054 1.69484C7.7402 0.829465 7.06506 0.158854 6.20345 0.0289899C5.95016 -0.0091989 1.93699 -0.00818768 1.69109 0.0301114ZM1.85041 1.65462C1.80996 1.67333 1.75454 1.71246 1.72727 1.74155C1.61466 1.86165 1.62054 1.73897 1.62098 3.95885C1.62137 5.89331 1.62295 5.98993 1.65544 6.0601C1.67416 6.10055 1.71328 6.15596 1.74237 6.18323C1.86247 6.29585 1.7398 6.28997 3.95967 6.28953C5.89414 6.28914 5.99076 6.28756 6.06092 6.25507C6.10137 6.23635 6.15679 6.19722 6.18406 6.16814C6.29664 6.04807 6.29075 6.17016 6.29075 3.95484C6.29075 1.73952 6.29664 1.86161 6.18406 1.74155C6.15679 1.71246 6.10137 1.67333 6.06092 1.65462C5.99074 1.62213 5.8945 1.62056 3.95567 1.62056C2.01683 1.62056 1.92059 1.62213 1.85041 1.65462ZM10.6752 2.40817C10.5872 2.44814 10.5138 2.52991 10.4799 2.62596C10.4603 2.68128 10.4553 2.95096 10.4553 3.95484C10.4553 5.12748 10.4576 5.22028 10.4887 5.30079C10.527 5.40024 10.6141 5.48442 10.7157 5.52034C10.7725 5.5404 11.0342 5.54528 12.0554 5.54528H13.3246L13.4159 5.4983C13.4711 5.46985 13.529 5.42028 13.5625 5.37261L13.6178 5.29389V3.95484V2.61579L13.5626 2.53748C13.5323 2.4944 13.471 2.4399 13.4264 2.41639L13.3454 2.3736L12.0474 2.37401C10.8279 2.37439 10.745 2.37645 10.6752 2.40817ZM4.56529 3.60781C4.24176 3.64725 3.95603 3.82867 3.77134 4.11192C3.64539 4.30507 3.61838 4.40619 3.61686 4.6903C3.61531 4.97542 3.63752 5.07144 3.74803 5.25738C4.05133 5.76772 4.67256 5.95191 5.20554 5.68955C5.3947 5.59643 5.59725 5.39388 5.69038 5.20472C5.90243 4.77394 5.82693 4.27199 5.50015 3.94C5.24191 3.67767 4.92276 3.56426 4.56529 3.60781ZM9.94048 9.74468C9.90003 9.7634 9.84461 9.80253 9.81734 9.83161C9.70472 9.95171 9.71061 9.82904 9.71105 12.0489C9.71144 13.9834 9.71302 14.08 9.74551 14.1502C9.76422 14.1906 9.80335 14.246 9.83244 14.2733C9.95254 14.3859 9.82986 14.38 12.0497 14.3796C13.9842 14.3792 14.0808 14.3776 14.151 14.3451C14.1914 14.3264 14.2469 14.2873 14.2741 14.2582C14.3867 14.1381 14.3808 14.2602 14.3808 12.0449C14.3808 9.82959 14.3867 9.95168 14.2741 9.83161C14.2469 9.80253 14.1914 9.7634 14.151 9.74468C14.0808 9.71219 13.9846 9.71063 12.0457 9.71063C10.1069 9.71063 10.0107 9.71219 9.94048 9.74468ZM3.04537 10.7921C2.95268 10.8342 2.86029 10.9382 2.83519 11.0286C2.80886 11.1233 2.80886 12.9665 2.83519 13.0613C2.86029 13.1516 2.95268 13.2556 3.04537 13.2977C3.11373 13.3287 3.19055 13.3312 4.10276 13.3312C5.01497 13.3312 5.09179 13.3287 5.16015 13.2977C5.23926 13.2617 5.34473 13.1539 5.37266 13.0805C5.39535 13.0208 5.39535 11.069 5.37266 11.0093C5.34473 10.9359 5.23926 10.8281 5.16015 10.7921C5.09179 10.7611 5.01497 10.7587 4.10276 10.7587C3.19055 10.7587 3.11373 10.7611 3.04537 10.7921Z" fill="currentColor"/>
</g>
<defs>
<clipPath id="clip0_8874_15273">
<rect width="16" height="16" fill="white"/>
</clipPath>
</defs>
</svg>

<svg xmlns="http://www.w3.org/2000/svg" width="16" height="16" fill="none">
  <g clip-path="url(#a)">
    <path fill="currentColor" fill-rule="evenodd" d="M1.691.03A2.007 2.007 0 0 0 .03 1.707c-.04.266-.04 4.23 0 4.496A2 2 0 0 0 1.706 7.88c.158.025.46.028 2.332.022 2.399-.007 2.242.002 2.593-.136A1.985 1.985 0 0 0 7.767 6.63c.122-.308.128-.363.137-1.154l.007-.712h.932l.008.354c.007.307.015.378.057.538a2.02 2.02 0 0 0 1.437 1.436c.16.043.23.05.538.058l.354.008v.934h-.64c-.473 0-.681.007-.805.027A1.995 1.995 0 0 0 8.12 9.791c-.02.124-.027.332-.027.806v.639H7.008v-.126c0-.24-.091-.626-.197-.84a2.078 2.078 0 0 0-1.213-1.038c-.274-.085-.394-.092-1.486-.092-1.122 0-1.258.01-1.531.103-.319.11-.586.278-.808.51-.32.334-.505.726-.556 1.177-.026.232-.026 1.998 0 2.23a2.005 2.005 0 0 0 1.745 1.77c.254.032 2.12.026 2.34-.007a2 2 0 0 0 1.7-1.871l.011-.198h1.08v.639c0 .695.015.864.103 1.124a2.003 2.003 0 0 0 1.602 1.354c.266.04 4.23.04 4.495 0a2.006 2.006 0 0 0 1.679-1.678c.04-.267.04-4.23 0-4.496a2.001 2.001 0 0 0-1.666-1.677c-.132-.021-.327-.028-.812-.028h-.64v-.934l.355-.008c.422-.01.606-.05.906-.197.536-.262.91-.715 1.072-1.303l.049-.178V2.438l-.05-.179a2.038 2.038 0 0 0-1.44-1.444l-.183-.05h-3.034l-.179.05a2.007 2.007 0 0 0-1.303 1.07c-.146.3-.186.485-.196.907l-.008.354h-.934v-.64c0-.484-.007-.68-.028-.811A2.001 2.001 0 0 0 6.203.029C5.95-.009 1.937-.008 1.691.03Zm.16 1.625a.474.474 0 0 0-.124.087c-.112.12-.106-.003-.106 2.217 0 1.934.002 2.03.034 2.101.02.04.058.096.087.123.12.113-.002.107 2.218.107 1.934 0 2.03-.002 2.1-.035a.474.474 0 0 0 .124-.087c.113-.12.107.002.107-2.213s.006-2.093-.107-2.213a.474.474 0 0 0-.123-.087c-.07-.033-.167-.034-2.105-.034-1.94 0-2.035.001-2.106.034Zm8.824.753a.382.382 0 0 0-.195.218c-.02.055-.025.325-.025 1.329 0 1.172.003 1.265.034 1.346.038.1.125.183.227.22.057.02.318.024 1.34.024h1.269l.09-.047a.438.438 0 0 0 .148-.125l.055-.08V2.616l-.055-.078a.463.463 0 0 0-.137-.12l-.08-.043h-1.299c-1.22 0-1.302.002-1.372.034Zm-6.11 1.2c-.323.04-.609.22-.794.504-.126.193-.153.294-.154.578-.002.285.02.381.131.567.303.51.925.695 1.458.433a1.18 1.18 0 0 0 .484-.485A1.098 1.098 0 0 0 5.5 3.94a1.08 1.08 0 0 0-.935-.332ZM9.94 9.745a.474.474 0 0 0-.123.087c-.112.12-.106-.003-.106 2.217 0 1.934.002 2.031.035 2.101.018.04.057.096.086.123.12.113-.002.107 2.218.107 1.934 0 2.03-.002 2.101-.035a.473.473 0 0 0 .123-.087c.113-.12.107.002.107-2.213s.006-2.093-.107-2.213a.474.474 0 0 0-.123-.087c-.07-.033-.166-.034-2.105-.034-1.94 0-2.035.001-2.106.034Zm-6.895 1.047a.42.42 0 0 0-.21.237c-.026.094-.026 1.938 0 2.032a.42.42 0 0 0 .21.237c.069.03.146.033 1.058.033s.989-.002 1.057-.033a.502.502 0 0 0 .213-.217c.022-.06.022-2.012 0-2.072a.502.502 0 0 0-.213-.217c-.068-.03-.145-.033-1.057-.033-.912 0-.99.002-1.058.033Z" clip-rule="evenodd"/>
  </g>
  <defs>
    <clipPath id="a">
      <path fill="#fff" d="M0 0h16v16H0z"/>
    </clipPath>
  </defs>
</svg>
